icons/leaf.svg

<?xml version="1.0" encoding="UTF-8"?><svg xmlns="http://www.w3.org/2000/svg" viewBox="0 0 50 50"><g id="uuid-60801259-0681-48d9-b95c-cbb502fd30d5"><path d="M46.49,.33c-.12-.11-.28-.15-.44-.11C21.72,5.67,4.37,17.32,4.8,27.93c.13,3.31,2.09,8.46,6.04,12.17l-7.84,8.87c-.18,.21-.16,.52,.04,.71,.1,.08,.21,.12,.33,.12,.14,0,.28-.06,.37-.17l7.83-8.86c3.83,3.22,8.66,4.62,12.01,4.62,.33,0,.64-.01,.93-.04,10.56-.91,19.87-19.67,22.14-44.59,.01-.16-.05-.32-.17-.42ZM5.8,27.89C5.39,17.96,21.78,6.96,44.94,1.5L27.01,21.8l-.43-6.98c-.02-.28-.26-.49-.53-.47-.28,.02-.49,.25-.47,.53l.49,7.98-14.58,16.49c-3.72-3.52-5.57-8.35-5.7-11.46Zm18.64,16.46c-3.14,.26-8.21-.99-12.19-4.33l5.92-6.7,11.48-.71c.28-.02,.49-.25,.47-.53-.02-.28-.26-.49-.53-.47l-10.49,.65,7.85-8.89h0l8.78-9.93,3.82-.24c.28-.02,.49-.25,.47-.53-.02-.28-.25-.49-.53-.47l-2.82,.17L45.49,2.4c-2.48,23.57-11.22,41.1-21.05,41.95Z"/></g><g id="uuid-3e4d81fd-931f-4770-9cff-fede76264c54"><text transform="translate(.39 55.05)" font-family="Roboto-Regular, Roboto" font-size="6"><tspan x="0" y="0">leaf</tspan></text></g></svg>

<svg xmlns="http://www.w3.org/2000/svg" viewBox="0 0 50 50"><g id="e6773024-c5be-4845-a91b-2f9fd0fcf3bb" data-name="ICONS"><path d="M46.49.33a.48.48,0,0,0-.44-.11C21.72,5.67,4.37,17.32,4.8,27.93a19.38,19.38,0,0,0,6,12.17L3,49a.5.5,0,0,0,0,.71.53.53,0,0,0,.33.13.52.52,0,0,0,.38-.17l7.83-8.87a19.79,19.79,0,0,0,12,4.62c.32,0,.63,0,.93,0C35.08,44.43,44.39,25.68,46.66.75A.51.51,0,0,0,46.49.33ZM5.8,27.89C5.39,18,21.78,7,44.94,1.5L27,21.8l-.43-7a.5.5,0,0,0-.53-.47.49.49,0,0,0-.47.53l.49,8L11.5,39.35A18.25,18.25,0,0,1,5.8,27.89ZM24.43,44.35A18.32,18.32,0,0,1,12.24,40l5.93-6.7,11.48-.71a.5.5,0,0,0,.47-.53.51.51,0,0,0-.53-.47l-10.49.65L27,23.36h0l8.78-9.93,3.82-.23a.5.5,0,0,0,.46-.53.48.48,0,0,0-.53-.47l-2.82.17,8.82-10C43,26,34.27,43.5,24.43,44.35Z"/></g><g id="bb7e6b4d-1b36-4b50-9c2b-67a984cb9e91" data-name="LABELS"><text transform="translate(0.39 55.05)" font-size="6" font-family="Roboto-Regular, Roboto">leaf</text></g></svg>
